X: 8
T:Kilcar Mazurka, The
M:3/4
L:1/8
S:The Brass Fiddle
R:mazurka
K:G
bg|:d2 B2 GB|e2 g2 fd|c2 A2 GB|d2 g2 bg|
d2 c2 Ac|e2 g2 fe|d2 f2 a2|1 g2 ga bg:|2 g2 gd Bd||
|:g2 ge fg|a2 gg fg|e^d ef ge|G2 B2 d2|
g2 ge fg|a2 gg fg|e2 f2 a2|1 g2 gd Bd:|2 g3a||
